src/assets/img/partners/github-hero.svg

<svg width="120" height="32" viewBox="0 0 120 32" fill="none" xmlns="http://www.w3.org/2000/svg">
<g clip-path="url(#clip0_3517_22949)">
<path d="M23.7647 13.7137H13.8309C13.5746 13.7137 13.3665 13.9218 13.3665 14.1781V19.0349C13.3665 19.2912 13.5746 19.5 13.8309 19.5H17.706V25.534C17.706 25.534 16.8359 25.8307 14.4302 25.8307C11.5922 25.8307 7.62748 24.7936 7.62748 16.0752C7.62748 7.35508 11.756 6.208 15.6317 6.208C18.9867 6.208 20.4321 6.79844 21.3517 7.08332C21.6409 7.17161 21.908 6.88377 21.908 6.62745L23.0164 1.93477C23.0164 1.81465 22.9757 1.67056 22.8391 1.57243C22.4656 1.3056 20.1869 0.0308509 14.4302 0.0308509C7.7988 0.0308509 0.996094 2.8521 0.996094 16.4152C0.996094 29.9789 8.7844 32 15.3475 32C20.7816 32 24.0781 29.6779 24.0781 29.6779C24.214 29.6028 24.2287 29.4128 24.2287 29.3258V14.1781C24.2287 13.9218 24.021 13.7137 23.7647 13.7137Z" fill="white"/>
<path d="M74.9601 1.65601C74.9601 1.39738 74.7553 1.18897 74.499 1.18897H68.9057C68.6501 1.18897 68.4426 1.39738 68.4426 1.65601C68.4426 1.65699 68.4439 12.4651 68.4439 12.4651H59.7255V1.65601C59.7255 1.39738 59.5197 1.18897 59.2637 1.18897H53.6708C53.4164 1.18897 53.209 1.39738 53.209 1.65601V30.9244C53.209 31.1827 53.4164 31.3927 53.6708 31.3927H59.2637C59.5197 31.3927 59.7255 31.1827 59.7255 30.9244V18.405H68.4439C68.4439 18.405 68.4288 30.9234 68.4288 30.9244C68.4288 31.1827 68.6359 31.3927 68.8923 31.3927H74.4987C74.7547 31.3927 74.9595 31.1827 74.9601 30.9244V1.65601Z" fill="white"/>
<path d="M34.3204 5.49648C34.3204 3.48261 32.7056 1.85504 30.7134 1.85504C28.7232 1.85504 27.1074 3.48261 27.1074 5.49648C27.1074 7.50871 28.7232 9.14087 30.7134 9.14087C32.7056 9.14087 34.3204 7.50871 34.3204 5.49648Z" fill="white"/>
<path d="M33.9196 24.7503V11.24C33.9196 10.9834 33.7128 10.7737 33.4568 10.7737H27.8812C27.6252 10.7737 27.3965 11.0375 27.3965 11.2939V30.6504C27.3965 31.2192 27.7509 31.3885 28.2098 31.3885H33.2333C33.7843 31.3885 33.9196 31.1175 33.9196 30.6412V24.7503Z" fill="white"/>
<path d="M96.2165 10.8176H90.6662C90.4116 10.8176 90.2045 11.0277 90.2045 11.286V25.6367C90.2045 25.6367 88.7942 26.6686 86.7928 26.6686C84.7914 26.6686 84.2603 25.7605 84.2603 23.8011V11.286C84.2603 11.0277 84.0536 10.8176 83.7989 10.8176H78.1656C77.9115 10.8176 77.7031 11.0277 77.7031 11.286V24.7483C77.7031 30.5693 80.9471 31.9934 85.4097 31.9934C89.0712 31.9934 92.023 29.9704 92.023 29.9704C92.023 29.9704 92.1632 31.0364 92.2272 31.1627C92.2905 31.2888 92.4563 31.4164 92.6355 31.4164L96.2191 31.4003C96.4732 31.4003 96.6816 31.1903 96.6816 30.933L96.6796 11.286C96.6796 11.0277 96.4722 10.8176 96.2165 10.8176Z" fill="white"/>
<path d="M109.197 26.6509C107.272 26.5921 105.966 25.7185 105.966 25.7185V16.4499C105.966 16.4499 107.254 15.6603 108.835 15.5192C110.833 15.34 112.759 15.9439 112.759 20.7117C112.759 25.7398 111.89 26.732 109.197 26.6509ZM111.386 10.1602C108.234 10.1602 106.09 11.5666 106.09 11.5666V1.6561C106.09 1.39748 105.883 1.18906 105.628 1.18906H100.019C99.7637 1.18906 99.5566 1.39748 99.5566 1.6561V30.9244C99.5566 31.1827 99.7637 31.3925 100.019 31.3925H103.911C104.087 31.3925 104.219 31.3022 104.317 31.144C104.414 30.9868 104.554 29.7944 104.554 29.7944C104.554 29.7944 106.847 31.9681 111.189 31.9681C116.287 31.9681 119.21 29.3825 119.21 20.3608C119.21 11.3391 114.541 10.1602 111.386 10.1602Z" fill="white"/>
<path d="M49.9941 10.7711H45.7983C45.7983 10.7711 45.7921 5.22937 45.7921 5.22805C45.7921 5.01833 45.6841 4.91331 45.4412 4.91331H39.7239C39.5017 4.91331 39.3823 5.01111 39.3823 5.2251V10.9529C39.3823 10.9529 36.517 11.6445 36.3234 11.7003C36.1304 11.7564 35.9883 11.9343 35.9883 12.1463V15.7457C35.9883 16.0047 36.1951 16.2137 36.4507 16.2137H39.3823V24.8731C39.3823 31.3046 43.8938 31.9364 46.9379 31.9364C48.3291 31.9364 49.9931 31.4897 50.2678 31.3883C50.4339 31.3273 50.5307 31.1549 50.5307 30.9685L50.5353 27.0091C50.5353 26.7508 50.3171 26.5417 50.0716 26.5417C49.8271 26.5417 49.2015 26.6411 48.5576 26.6411C46.4968 26.6411 45.7983 25.6831 45.7983 24.4425C45.7983 23.2032 45.798 16.2137 45.798 16.2137H49.9941C50.2498 16.2137 50.4572 16.0047 50.4572 15.7457V11.2375C50.4572 10.9792 50.2498 10.7711 49.9941 10.7711Z" fill="white"/>
</g>
<defs>
<clipPath id="clip0_3517_22949">
<rect width="118.646" height="32" fill="white" transform="translate(0.757812)"/>
</clipPath>
</defs>
</svg>

<svg xmlns="http://www.w3.org/2000/svg" width="120" height="32" fill="none"><clipPath id="a"><path d="M.758 0h118.646v32H.758z"/></clipPath><g fill="#fff" clip-path="url(#a)"><path d="M23.765 13.714H13.83a.465.465 0 0 0-.464.464v4.857c0 .256.208.465.464.465h3.875v6.034s-.87.297-3.276.297c-2.838 0-6.803-1.037-6.803-9.756s4.129-9.867 8.005-9.867c3.355 0 4.8.59 5.72.875.289.089.556-.2.556-.456l1.108-4.692c0-.12-.04-.264-.177-.363-.373-.266-2.652-1.541-8.409-1.541C7.8.03.996 2.852.996 16.415S8.784 32 15.348 32c5.434 0 8.73-2.322 8.73-2.322.136-.075.15-.265.15-.352V14.178a.464.464 0 0 0-.463-.464M74.96 1.656a.463.463 0 0 0-.461-.467h-5.593a.465.465 0 0 0-.463.467v10.81h-8.717V1.655a.463.463 0 0 0-.462-.467H53.67a.464.464 0 0 0-.462.467v29.268c0 .259.207.469.462.469h5.593c.256 0 .461-.21.461-.469V18.405h8.719l-.015 12.52c0 .258.207.468.463.468H74.5c.256 0 .46-.21.461-.469zM34.32 5.496c0-2.013-1.614-3.641-3.607-3.641-1.99 0-3.606 1.628-3.606 3.641s1.616 3.645 3.606 3.645c1.993 0 3.607-1.632 3.607-3.645M33.92 24.75V11.24a.465.465 0 0 0-.463-.466H27.88c-.256 0-.485.263-.485.52V30.65c0 .57.355.738.814.738h5.023c.551 0 .687-.27.687-.747zM96.217 10.818h-5.55a.466.466 0 0 0-.462.468v14.35s-1.41 1.033-3.412 1.033-2.533-.908-2.533-2.868V11.286a.465.465 0 0 0-.461-.468h-5.633a.467.467 0 0 0-.463.468v13.462c0 5.821 3.244 7.245 7.707 7.245 3.661 0 6.613-2.023 6.613-2.023s.14 1.066.204 1.193c.063.126.23.253.408.253l3.584-.016c.254 0 .463-.21.463-.467l-.002-19.647a.466.466 0 0 0-.463-.468M109.197 26.65c-1.925-.058-3.231-.931-3.231-.931v-9.27s1.288-.789 2.869-.93c1.998-.179 3.924.425 3.924 5.193 0 5.028-.869 6.02-3.562 5.939m2.189-16.49c-3.152 0-5.296 1.407-5.296 1.407v-9.91a.464.464 0 0 0-.462-.468h-5.609a.464.464 0 0 0-.462.467v29.268c0 .259.207.468.462.468h3.892c.176 0 .308-.09.406-.248.097-.157.237-1.35.237-1.35s2.293 2.174 6.635 2.174c5.098 0 8.021-2.585 8.021-11.607s-4.669-10.2-7.824-10.2M49.994 10.771h-4.196l-.006-5.543c0-.21-.108-.315-.35-.315h-5.718c-.222 0-.342.098-.342.312v5.728s-2.865.692-3.059.747a.465.465 0 0 0-.335.446v3.6c0 .259.207.468.463.468h2.931v8.66c0 6.43 4.512 7.062 7.556 7.062 1.391 0 3.055-.446 3.33-.548.166-.06.263-.233.263-.42l.004-3.959a.47.47 0 0 0-.463-.467c-.245 0-.87.1-1.514.1-2.061 0-2.76-.959-2.76-2.2v-8.228h4.196a.465.465 0 0 0 .463-.468v-4.509a.464.464 0 0 0-.463-.466"/></g></svg>
